teeny/solid/skull.svg

<svg width="15" height="15" viewBox="0 0 15 15" fill="none" xmlns="http://www.w3.org/2000/svg">
<path d="M4 7.5C4 7.22386 4.22386 7 4.5 7C4.77614 7 5 7.22386 5 7.5C5 7.77614 4.77614 8 4.5 8C4.22386 8 4 7.77614 4 7.5Z" fill="black"/>
<path d="M10 7.5C10 7.22386 10.2239 7 10.5 7C10.7761 7 11 7.22386 11 7.5C11 7.77614 10.7761 8 10.5 8C10.2239 8 10 7.77614 10 7.5Z" fill="black"/>
<path fill-rule="evenodd" clip-rule="evenodd" d="M1 6.5C1 2.91015 3.91015 0 7.5 0C11.0899 0 14 2.91015 14 6.5V9.88197C14 10.4501 13.679 10.9695 13.1708 11.2236L12 11.809V12.5C12 13.8807 10.8807 15 9.5 15H5.5C4.11929 15 3 13.8807 3 12.5V11.809L1.82918 11.2236C1.321 10.9695 1 10.4501 1 9.88197V6.5ZM4.5 6C3.67157 6 3 6.67157 3 7.5C3 8.32843 3.67157 9 4.5 9C5.32843 9 6 8.32843 6 7.5C6 6.67157 5.32843 6 4.5 6ZM10.5 6C9.67157 6 9 6.67157 9 7.5C9 8.32843 9.67157 9 10.5 9C11.3284 9 12 8.32843 12 7.5C12 6.67157 11.3284 6 10.5 6ZM7.14648 9.14645C7.34175 8.95118 7.65833 8.95118 7.85359 9.14645L8.85359 10.1464L8.14648 10.8536L7.50004 10.2071L6.85359 10.8536L6.14648 10.1464L7.14648 9.14645Z" fill="black"/>
</svg>

<svg viewBox="0 0 15 15" xmlns="http://www.w3.org/2000/svg"><g><path d="M4 7.5c0-.28.22-.5.5-.5 .27 0 .5.22.5.5 0 .27-.23.5-.5.5 -.28 0-.5-.23-.5-.5Z"/><path d="M10 7.5c0-.28.22-.5.5-.5 .27 0 .5.22.5.5 0 .27-.23.5-.5.5 -.28 0-.5-.23-.5-.5Z"/><path fill-rule="evenodd" d="M1 6.5C1 2.91 3.91 0 7.5 0 11.08 0 14 2.91 14 6.5v3.38c0 .56-.33 1.08-.83 1.34l-1.18.58v.69c0 1.38-1.12 2.5-2.5 2.5h-4c-1.39 0-2.5-1.12-2.5-2.5v-.7l-1.18-.59c-.51-.26-.83-.78-.83-1.35V6.46ZM4.5 6C3.67 6 3 6.67 3 7.5 3 8.32 3.67 9 4.5 9 5.32 9 6 8.32 6 7.5 6 6.67 5.32 6 4.5 6Zm6 0C9.67 6 9 6.67 9 7.5c0 .82.67 1.5 1.5 1.5 .82 0 1.5-.68 1.5-1.5 0-.83-.68-1.5-1.5-1.5ZM7.14 9.14c.19-.2.51-.2.7 0l1 .99 -.71.7 -.65-.65 -.65.64 -.71-.71 1-1Z"/></g></svg>
